X: 473
T:Island Dance
S:Bobby MacLeod
Z:https://nigelgatherer.com/
L:1/8
M:2/4
K:D
ff a>f | ed B2 | ee fe | dB A2 |
ff af | e d B/c/d/e/ | fa fe | d2 d2 :|
A/A/A/A/ A/A/A/A/ | Ad dc | B/B/B/B/ B/B/B/B/ Be ec |
A/A/A/A/ A/A/A/A/ | Ad de | fa fe | d2 d2 :|

